!!!!SEGMENT: artfugue-018a.krn
!!!COM: Bach, Johann Sebastian
!!!CDT: 1685/03/31-1750/07/28
!!!OPR@@DE: Die Kunst der Fuge
!!!OPR@EN: The Art of the Fugue
!!!OTL: Contrapunctus 18 (XII), a 4. (rectus)
!!!ONB: #12 in 1878 edition (SMS)
!!!ONB: #18 in 1926 edition (SMS2)
!!!ONB: Nach dem Berliner Autographe Nr. 11.
!!!SCA: BWV 1080
!!!voices: 4
!!!AGN:
**kern	**kern	**kern	**kern
*part2	*part2	*part1	*part1
*staff4	*staff3	*staff2	*staff1
*I"	*I"	*I"	*I"
*clefF4	*clefC4	*clefC3	*clefC1
*mclefF4	*mclefGv2	*mclefG2	*mclefG2
*k[b-]	*k[b-]	*k[b-]	*k[b-]
*d:	*d:	*d:	*d:
*M3/2	*M3/2	*M3/2	*M3/2
*MM200	*MM200	*MM200	*MM200
=1	=1	=1	=1
2D	1.r	1.r	1.r
1A	.	.	.
=2	=2	=2	=2
2F	1.r	1.r	1.r
1D	.	.	.
=3	=3	=3	=3
2C#X	1.r	1.r	1.r
2D	.	.	.
2E	.	.	.
=4	=4	=4	=4
2.F	1.r	1.r	1.r
4G	.	.	.
4F	.	.	.
4E	.	.	.
=5	=5	=5	=5
2D	2A	1.r	1.r
4r	1d	.	.
4E	.	.	.
4F	.	.	.
4G	.	.	.
=6	=6	=6	=6
2A	2c	1.r	1.r
4r	1A	.	.
4BX	.	.	.
4c	.	.	.
4d	.	.	.
=7	=7	=7	=7
4e	2G#	1.r	1.r
4d	.	.	.
4c	2AX	.	.
4BX	.	.	.
4A	2BX	.	.
4G#	.	.	.
!!LO:LB:g=original
=8	=8	=8	=8
4A	2.c	1.r	1.r
8GnL	.	.	.
8FJ	.	.	.
(2.Et	.	.	.
.	4d	.	.
.	4c	.	.
8DL	4BnX	.	.
8EJ)	.	.	.
=9	=9	=9	=9
4F	2.A	1.r	1.r
8EL	.	.	.
8DJ	.	.	.
(2.C#t	.	.	.
.	4B-X	.	.
.	4A	.	.
8BBnLL	4G	.	.
8C#JJ)	.	.	.
=10	=10	=10	=10
2D	8FL	2d	1.r
.	8G	.	.
.	8F	.	.
.	8EJ	.	.
4r	4D	1a	.
4FF	4A	.	.
4GG	4BX	.	.
4AA	4c#X	.	.
=11	=11	=11	=11
4BB-	2d	2f	1.r
4AA	.	.	.
1BB-T	4r	1d	.
.	4e	.	.
.	4f	.	.
.	4g	.	.
=12	=12	=12	=12
[1.AA	4a	2c#X	1.r
.	4g	.	.
.	4f	2d	.
.	4e	.	.
.	4d	2e	.
.	4c#X	.	.
=13	=13	=13	=13
8AAL]	2.d	2.f	1.r
8GG	.	.	.
8FF	.	.	.
8GGJ	.	.	.
4AA	.	.	.
4BB-	4c#X	4g	.
4AA	4d	4f	.
4GG	4e	4e	.
!!LO:LB:g=original
=14	=14	=14	=14
4FF	4A/	2d	2a
4EE	4G	.	.
2DD	4F	4r	1dd
.	4E	4e	.
4r	4D	4f	.
4BB-	4E	4g	.
=15	=15	=15	=15
8AAL	4F	2a	2cc
8GG	.	.	.
8FF	4G	.	.
8EEJ	.	.	.
2FF	4A	4r	1a
.	4G#	4bX	.
4r	4AX	4cc	.
4F	4BX	4dd	.
=16	=16	=16	=16
8EL	4c	4ee	2g#
8D	.	.	.
8C	4d	4dd	.
8BBXJ	.	.	.
2C	[1e	4cc	2aX
.	.	4bX	.
4r	.	4a	2bX
4E	.	4g#	.
=17	=17	=17	=17
8AAL	4e]	2.a	2.cc
8BBX	.	.	.
8C	4A	.	.
8DJ	.	.	.
2E	2E	.	.
.	.	4b-X	4dd
2EE	4r	4a	4cc
.	4d	4g	4b-X
=18	=18	=18	=18
8FFL	4c	2.f	2.a
8GG	.	.	.
8AA	4F	.	.
8BB-J	.	.	.
2C	2C	.	.
.	.	4g	4b-
2CC	4r	4f	4a
.	4B-	4e	4g
!!LO:LB:g=original
=19	=19	=19	=19
8DDL	4A	2.d	2.f
8EE	.	.	.
8FF	8dL	.	.
8GGJ	8eJ	.	.
2AA	4f	.	.
.	4c#X	4e	4g/
4r	4d	4d	4f
4BB-	4G	4c#X	4e
=20	=20	=20	=20
4AA	2.A	4d	4f
4GG	.	4e	4g
4FF	.	[2f	[2a
4EE	4G	.	.
2DD	4F	4f]	4a]
.	4E	8gL	8bXL
.	.	8eJ	8cc#XJ
=21	=21	=21	=21
1.r	[2D	4f	8ddL
.	.	.	8ee
.	.	4a	8ff
.	.	.	8ggJ
.	8DL]	4d	[2aa
.	8E	.	.
.	8F	8AL	.
.	8GJ	8BXJ	.
.	[2A	4c#X	8aaL]
.	.	.	8bb-
.	.	8dL	8aa
.	.	8eJ	8ggJ
=22	=22	=22	=22
1r	8AL]	4d	4ff
.	8a	.	.
.	8A	4c#X	4ee
.	8GJ	.	.
.	8FL	8dL	[2dd
.	8E	8e	.
.	8D	8f	.
.	8EJ	8gJ	.
8DL	4F	[2a	4dd]
8E	.	.	.
8F	4f	.	8cc#XL
8GJ	.	.	8bXJ
=23	=23	=23	=23
8AL	2e	2.a]	2cc#X
8B-	.	.	.
8A	.	.	.
8GJ	.	.	.
4F	2.f	.	2.dd
4E	.	8b-L	.
.	.	8ccJ	.
4D	.	2b-T	.
4C#X	4g	.	4ee
!!LO:LB:g=original
=24	=24	=24	=24
4D/	2f	4a	2.ff
8CnL	.	2d	.
8BB-J	.	.	.
2.AAt	[1F	.	.
.	.	4e-	4gg
.	.	4d	4ff
8GGL	.	4c	4ee-
8AAJ	.	.	.
=25	=25	=25	=25
4BB-	4F]	4.B-	1dd
4GG	8GL	.	.
.	8EJ	16cLL	.
.	.	16B-JJ	.
2D/	8F#XL	2A	.
.	8A	.	.
.	8B-	.	.
.	8cJ	.	.
8r	4d	2r	8r
8BB-L	.	.	8ddL
8C	4c	.	8ee
8DJ	.	.	8ff#XJ
=26	=26	=26	=26
4E-	8B-L	8gL	8ggL
.	8c	8a	8ff#X
8DL	8B-	8b-	8gg
8CJ	8AJ	8ccJ	8aaJ
4BB-	8GL	[2dd	4bb-
.	8F#X	.	.
4AA	8G	.	4r
.	8AJ	.	.
4GG	8B-L	8ddL]	2r
.	8c	8ee-	.
4FF#X	8d	8dd	.
.	8e-J	8ccJ	.
=27	=27	=27	=27
4GG	2d	4b-	1r
4AA	.	4a	.
4BB-	1r	2.g	.
4AA	.	.	.
4BB-	.	.	[2dd
4C	.	8f#XL	.
.	.	8eJ	.
=28	=28	=28	=28
2D	1.r	2f#X	4dd]
.	.	.	4cc
2E-	.	2.g	4b-
.	.	.	4a
8r	.	.	4g
8E-L	.	.	.
8D	.	4a	4f#X
8CJ	.	.	.
!!LO:LB:g=original
=29	=29	=29	=29
8BB-L	1.r	2.b-	4g
8AA	.	.	.
8GG	.	.	4e-
8FF#XJ	.	.	.
8GGL	.	.	[1d
8DD	.	.	.
8EE	.	4cc	.
8FF#J	.	.	.
8GGL	.	4b-	.
8AA	.	.	.
8BB-	.	4a	.
8CJ	.	.	.
=30	=30	=30	=30
8BB-L	1.r	2.g	4d]
8AA	.	.	.
8GG	.	.	8e-L
8AAJ	.	.	8fJ
2BB-	.	.	4g
.	.	4a-	4f
4r	.	4g	4e-
4BBX	.	4f	4d
=31	=31	=31	=31
8CL>	1.r	2.e-	[2c
8D	.	.	.
8E-	.	.	.
8CJ	.	.	.
2AA	.	.	8cL]
.	.	.	8d
.	.	4g	8e-
.	.	.	8cJ
8r	.	4f	8dL
8DL	.	.	8B-
8E-X	.	4e-	8c
8FJ	.	.	8AJ
=32	=32	=32	=32
4G	8B-L	[2d	[2B-
.	8c	.	.
8FL	8d	.	.
8E-J	8e-J	.	.
4D	[2f	8dL]	8B-L]
.	.	8e-	8c
4C	.	8f	8d
.	.	8e-J	8e-J
4BB-	8fL]	8dL	[2f
.	8g	8e-	.
4AA	8f	8d	.
.	8e-J	8cJ	.
!!LO:LB:g=original
=33	=33	=33	=33
4BB-	4d	4B-	2f]
4C	4c	8AL	.
.	.	8GJ	.
4D	2.B-	[2F	8ffL
.	.	.	8ee-
4E-	.	.	8dd
.	.	.	8ccJ
[2F	.	8FL]	4dd
.	.	8G	.
.	8AL	8A	4ff
.	8GJ	8B-J	.
=34	=34	=34	=34
8FL]	2A	2c	8ccL
8G	.	.	8b-
8F	.	.	8a
8E-J	.	.	8gJ
[2D	2.B-	8dL	[2f
.	.	8e-	.
.	.	8d	.
.	.	8cJ	.
8DL]	.	[2B-	8fL]
8E-	.	.	8g
8D	4c	.	8f
8CJ	.	.	8e-J
=35	=35	=35	=35
4BB-	2.d	8B-L]	8dL
.	.	8c	8en
8AAL	.	8d	8f#X
8GGJ	.	8e-J	8gJ
2.FF#Xt	.	4d	1a
.	4e-	8cL	.
.	.	8B-J	.
.	4d	4A	.
8EEL	4c	4a	.
8FF#J	.	.	.
=36	=36	=36	=36
4GG	[2B-	2g	8b-L
.	.	.	8a
4EE-	.	.	8b-
.	.	.	8ccJ
2BB-	8B-L]	2.f	8ddL
.	8A	.	8cc
.	8B-	.	8dd
.	8cJ	.	8ee-J
2r	4d	.	8ffL
.	.	.	8ee-
.	4B-	8gL	8dd
.	.	8a-J	8ccJ
!!LO:LB:g=original
=37	=37	=37	=37
1.r	[2e-	8gL	8b-L
.	.	8f	8a-
.	.	8e-	8g
.	.	8fJ	8a-J
.	8e-L]	8gL	4b-
.	8d	8f	.
.	8e-	8g	2b-
.	8fJ	8a-J	.
.	4e-	4g	.
.	4d	4f	8ccL
.	.	.	8ddJ
=38	=38	=38	=38
1.r	8cL	2e-	[1.ee-
.	8B-	.	.
.	8c	.	.
.	8dJ	.	.
.	4c	8r	.
.	.	8AL	.
.	4B-	8G	.
.	.	8B-J	.
.	4A	8cL	.
.	.	8d	.
.	4G	8e-X	.
.	.	8dJ	.
=39	=39	=39	=39
1.r	4A	4c	4ee-]
.	4F	4A	8ffL
.	.	.	8ggJ
.	4G	4B-	4ff
.	4A	4c	4ee-
.	8B-L	4d	[2dd
.	8c	.	.
.	8d	4f#X	.
.	8cJ	.	.
=40	=40	=40	=40
1.r	4B-	8gL	1dd_
.	.	8a	.
.	4A	8b-	.
.	.	8ccJ	.
.	4G	8b-L	.
.	.	8dd	.
.	4F#X	8a	.
.	.	8ccJ	.
.	4G	4b-	4dd]
.	4E	4g	8eenL
.	.	.	8ffJ
!!LO:LB:g=original
=41	=41	=41	=41
1.r	4Fn	4a	8eeL
.	.	.	8dd
.	4G	4b-	8cc#X
.	.	.	8ddJ
.	8AL	4a	4cc#
.	8G	.	.
.	8A	4f	4dd
.	8B-J	.	.
.	4A	8c#XL	2ee
.	.	8d	.
.	4G	8e	.
.	.	8c#J	.
=42	=42	=42	=42
8DL	8FL	[2d	4a
8E	8GJ	.	.
8F	[4A	.	2aa
8GJ	.	.	.
[2A	8AL]	8dL]	.
.	8BX	8f	.
.	8c#X	8e	8ggL
.	8dJ	8dJ	8ffJ
8AL]	4e	2c#X	8eeL
8B-	.	.	8gg
8A	[4a	.	8ff
8GJ	.	.	8eeJ
=43	=43	=43	=43
4F	4a]	[2d	8ddL
.	.	.	8cc#X
4E	4g	.	8dd
.	.	.	8eeJ
[2D	4f	8dL]	[2ff
.	.	8e	.
.	4a	8f	.
.	.	8gJ	.
4D]	2d	[2a	8ffL]
.	.	.	8ee
8C#XL	.	.	8ff
8BBXJ	.	.	8ggJ
=44	=44	=44	=44
2C#X	2r	4a]	8aaL
.	.	.	8gg
.	.	4e	8aa
.	.	.	8bb-J
2.D	8r	4f	8aaL
.	8C#XL	.	8gg
.	8D	4a	8ff
.	8EJ	.	8eeJ
.	8FL	4.b-	[2dd
.	8A	.	.
4E	8G	.	.
.	8B-J	16aLL	.
.	.	16gJJ	.
!!LO:LB:g=original
=45	=45	=45	=45
2.F	2.A	8fL	8ddL]
.	.	8e	8cc#X
.	.	8f	8dd
.	.	8gJ	8eeJ
.	.	8fL	8ddL
.	.	8eJ	8cc
4G	4B-	2d	8b-
.	.	.	8aJ
4F	4A	.	8bXL
.	.	.	8cc#X
4E	4G	4c#X	8dd
.	.	.	8eeJ
=46	=46	=46	=46
[2D	8FL	4d	8ffL
.	8GJ	.	8ee
.	4A/	4A	8ff
.	.	.	8ggJ
8DL]	4D	8dL	8ffL
8C#	.	8eJ	8ee
8D	2r	[4f	8dd
8EJ	.	.	8cc#XJ
4F	.	8fL]	8ddL
.	.	8g	8ee
4D	[4d	8a	8ff
.	.	8fJ	8ddJ
=47	=47	=47	=47
[2G	4d]	2d	8b-L
.	.	.	8a
.	8gL	.	8b-
.	8f#XJ	.	8ccJ
8GL]	4g	2r	4b-
8F#	.	.	.
8G	8B-L	.	4dd
8AJ	8cJ	.	.
4G	8dL	4r	4b-
.	8c	.	.
4F	8B-	4d	4dd
.	8AJ	.	.
=48	=48	=48	=48
[2E	8GL	4e	8ggL
.	8AJ	.	8ff
.	2B-	4c#	8gg
.	.	.	8aaJ
8EL]	.	4e	8ggL
8D	.	.	8ffJ
8E	4G	[4g	[4ee
8FJ	.	.	.
4G	4BnX	8gL]	8eeL]
.	.	8a	8ff
4E	[4e	8g	8ee
.	.	8fJ	8ddJ
!!LO:LB:g=original
=49	=49	=49	=49
[2A	8eL]	4e	8cc#XL
.	8d	.	8bX
.	8e	4a	8cc#
.	8fJ	.	8ddJ
8AL]	4g	1r	8cc#L
8G	.	.	8eeJ
8A	2c#X	.	[>4e
8B-J	.	.	.
4A	.	.	8eL]
.	.	.	8f
4E	4c#	.	8g
.	.	.	16aL
.	.	.	16b-JJ
=50	=50	=50	=50
2.F	[2d	8dL	[1.a
.	.	8e	.
.	.	8f	.
.	.	8gJ	.
.	8dL]	2.a	.
.	8BX	.	.
8EL	8c#X	.	.
8DJ	8dJ	.	.
8C#XL	8eL	.	.
8AA	8c#	.	.
8BBX	8d	4g	.
8C#J	8eJ	.	.
=51	=51	=51	=51
8DL	4A	4f	1.a_
8C#X	.	.	.
8D	4r	4e	.
8EJ	.	.	.
[2F	8DL	2.d	.
.	8E	.	.
.	8F	.	.
.	8GJ	.	.
8FL]	[2A	.	.
8E	.	.	.
8F	.	8c#XL	.
8GJ	.	8BXJ	.
=52	=52	=52	=52
4A	8AL]	2c#X	1.a_
.	8B-	.	.
4r	8A	.	.
.	8GJ	.	.
8DDL	[2F	2.d	.
8EE	.	.	.
8FF	.	.	.
8GGJ	.	.	.
[2AA	8FL]	.	.
.	8E	.	.
.	8D	4e	.
.	8C#XJ	.	.
!!LO:LB:g=original
=53	=53	=53	=53
4AA]	8DL	4f	1.a_
.	8A	.	.
4GG	8BX	4e	.
.	8c#XJ	.	.
4FF	8dL	4f	.
.	8e	.	.
4EE	8d	4g	.
.	8c#J	.	.
8FFL	4d	4f	.
8AA	.	.	.
8BBX	4G	4e	.
8C#XJ	.	.	.
=54	=54	=54	=54
[1.D	4F#	4d	4a]
.	[4B-X	4r	8gL
.	.	.	8f#XJ
.	8B-L]	4e	8gL
.	8A	.	8a
.	8G	8r	8b-
.	8AJ	4r	8ccJ
.	8B-L	.	[2dd
.	8c	8f#XL	.
.	8B-	8g	.
.	8AJ	8aJ	.
=55	=55	=55	=55
1.D_	8GL	4b-	4dd]
.	8D	.	.
.	8E	4a	4cc
.	8F#XJ	.	.
.	8GL	4g	4b-
.	8A	.	.
.	8B-	4f#X	4a
.	8cJ	.	.
.	8B-L	2e	8gL
.	8A	.	8aJ
.	8G	.	4b-
.	16F#XL	.	.
.	16EJJ	.	.
=56	=56	=56	=56
2D_	8F#XL	8r	1.a;
.	8GJ	8eL	.
.	4A/	8f#X	.
.	.	8gJ	.
8DL]	1D;	1f#;	.
16AAL	.	.	.
16GG	.	.	.
16FF#X	.	.	.
16GGJ	.	.	.
8AAJ	.	.	.
2DD;	.	.	.
==	==	==	==
*-	*-	*-	*-
!!!RDF**kern: > = above
!!!RDF**kern: < = below
!!!system-decoration: [(s1,s2,s3,s4)]
!!!URL-pdf: https://vmirror.imslp.org/files/imglnks/usimg/8/88/IMSLP504269-PMLP05843-BGA-25.1.pdf#page=55 @{SMS1}
!!!URL-pdf: https://s9.imslp.org/files/imglnks/usimg/1/1d/IMSLP469177-PMLP5843-Bach,_J.S._-_The_Art_of_the_Fugue.pdf#page=99 @{SMS2}
!!!URL-youtube: https://www.youtube.com/watch?v=OMtjlaDEMdI&t=3040s Netherlands Bach Society/Malinowski
!!!URL-youtube: https://www.youtube.com/watch?v=N6sUlZa-IrU&t=3040s Netherlands Bach Society
!!!SMS: @{SMS1}
!!!SMS: Bach-Gesellschaft Ausgabe, Band 25.1 Leipzig: Breitkopf und Härtel, 1878. Plate B.W. XXV (1).
!!!SMS2: Bach-Gesellschaft Ausgabe, Band 47 Leipzig: Breitkopf und Härtel, 1926. Plate B.W. XLVII.
!!!PED: Wilhelm Rust
!!!PED-ODT: 1822-1892
!!!ONB: Die Kunst der Fuge nach dem Berliner Autograph in Anordnung und Lesarten
!!!ENC: Craig Stuart Sapp
!!!END: 2024/03/23
!!!EED: Craig Stuart Sapp
!!!EEV: 2024/03/28
!!!title: @{OPR} (@{SCA}), @{OTL}
!!!filter-keyboard: autostem -r | satb2gs | shed -e s/clefC./clefG2/I
!!!filter-modern: modori -m | autostem -r
